svg/pint.svg

<?xml version="1.0" encoding="UTF-8" standalone="no"?>
<svg
   xmlns:dc="http://purl.org/dc/elements/1.1/"
   xmlns:cc="http://creativecommons.org/ns#"
   xmlns:rdf="http://www.w3.org/1999/02/22-rdf-syntax-ns#"
   xmlns:svg="http://www.w3.org/2000/svg"
   xmlns="http://www.w3.org/2000/svg"
   xmlns:sodipodi="http://sodipodi.sourceforge.net/DTD/sodipodi-0.dtd"
   xmlns:inkscape="http://www.inkscape.org/namespaces/inkscape"
   class="ionicon"
   viewBox="0 0 512 512"
   version="1.1"
   id="svg6"
   sodipodi:docname="pint.svg"
   inkscape:version="1.0.2 (e86c8708, 2021-01-15)">
  <metadata
     id="metadata12">
    <rdf:RDF>
      <cc:Work
         rdf:about="">
        <dc:format>image/svg+xml</dc:format>
        <dc:type
           rdf:resource="http://purl.org/dc/dcmitype/StillImage" />
      </cc:Work>
    </rdf:RDF>
  </metadata>
  <defs
     id="defs10" />
  <sodipodi:namedview
     pagecolor="#ffffff"
     bordercolor="#666666"
     borderopacity="1"
     objecttolerance="10"
     gridtolerance="10"
     guidetolerance="10"
     inkscape:pageopacity="0"
     inkscape:pageshadow="2"
     inkscape:window-width="689"
     inkscape:window-height="480"
     id="namedview8"
     showgrid="false"
     inkscape:zoom="1.3027344"
     inkscape:cx="256"
     inkscape:cy="256"
     inkscape:window-x="44"
     inkscape:window-y="25"
     inkscape:window-maximized="0"
     inkscape:current-layer="svg6" />
  <title
     id="title2">Pint</title>
  <path
     style="color:#000000;font-style:normal;font-variant:normal;font-weight:normal;font-stretch:normal;font-size:medium;line-height:normal;font-family:sans-serif;font-variant-ligatures:normal;font-variant-position:normal;font-variant-caps:normal;font-variant-numeric:normal;font-variant-alternates:normal;font-variant-east-asian:normal;font-feature-settings:normal;font-variation-settings:normal;text-indent:0;text-align:start;text-decoration:none;text-decoration-line:none;text-decoration-style:solid;text-decoration-color:#000000;letter-spacing:normal;word-spacing:normal;text-transform:none;writing-mode:lr-tb;direction:ltr;text-orientation:mixed;dominant-baseline:auto;baseline-shift:baseline;text-anchor:start;white-space:normal;shape-padding:0;shape-margin:0;inline-size:0;clip-rule:nonzero;display:inline;overflow:visible;visibility:visible;isolation:auto;mix-blend-mode:normal;color-interpolation:sRGB;color-interpolation-filters:linearRGB;solid-color:#000000;solid-opacity:1;vector-effect:none;fill:#000000;fill-opacity:1;fill-rule:nonzero;stroke-width:1;stroke-linecap:butt;stroke-linejoin:miter;stroke-miterlimit:4;stroke-dasharray:none;stroke-dashoffset:0;stroke-opacity:1;color-rendering:auto;image-rendering:auto;shape-rendering:auto;text-rendering:auto;enable-background:accumulate;stop-color:#000000;stop-opacity:1;stroke:none;opacity:1"
     d="m 399,99.29 c -0.15,-2.13 -0.3,-4.35 -0.44,-6.68 L 395.69,46 C 394.63463,29.147068 380.66594,16.014479 363.78,16 H 148.21 c -16.88594,0.01448 -30.85463,13.147068 -31.91,30 l -2.91,46.63 c -0.14,2.31 -0.29,4.51 -0.43,6.62 -1.29,19.24 -2.23,33.14 3.73,65.66 1.67,9.11 5.22,22.66 9.73,39.82 12.61,48 33.71,128.36 33.71,195.63 V 472 c 0,13.25483 10.74517,24 24,24 h 143.74 c 13.25483,0 24,-10.74517 24,-24 v -71.62 c 0,-77.09 21.31,-153.29 34,-198.81 4.38,-15.63 7.83,-28 9.41,-36.62 5.99,-32.51 5.05,-46.42 3.72,-65.66 z m -35,-47.54 1.5,24 c 0.14442,2.30606 -1.68943,4.254518 -4,4.25 h -211 c -2.31057,0.0045 -4.14442,-1.94394 -4,-4.25 l 1.48,-24 c 0.13263,-2.118688 1.89722,-3.764761 4.02,-3.75 h 208 c 2.11508,-0.0041 3.86781,1.639051 4,3.75 z"
     id="path4" />
</svg>

<svg xmlns="http://www.w3.org/2000/svg" width="512" height="512" viewBox="0 0 512 512"><title>ionicons-v5-p</title><path d="M399,99.29c-.15-2.13-.3-4.35-.44-6.68L395.69,46a32,32,0,0,0-31.91-30H148.21A32,32,0,0,0,116.3,46l-2.91,46.63c-.14,2.31-.29,4.51-.43,6.62-1.29,19.24-2.23,33.14,3.73,65.66,1.67,9.11,5.22,22.66,9.73,39.82,12.61,48,33.71,128.36,33.71,195.63V472a24,24,0,0,0,24,24H327.87a24,24,0,0,0,24-24V400.38c0-77.09,21.31-153.29,34-198.81,4.38-15.63,7.83-28,9.41-36.62C401.27,132.44,400.33,118.53,399,99.29ZM364,51.75l1.5,24a4,4,0,0,1-4,4.25h-211a4,4,0,0,1-4-4.25l1.48-24A4,4,0,0,1,152,48H360A4,4,0,0,1,364,51.75Z"/></svg>
